src/dsmComponents/Icons/log-out-16px.svg

<svg width="16" height="16" xmlns="http://www.w3.org/2000/svg" xmlns:xlink="http://www.w3.org/1999/xlink"><defs><path d="M15 0c.6 0 1 .4 1 1v14c0 .6-.4 1-1 1H6c-.6 0-1-.4-1-1v-3h2v2h7V2H7v2H5V1c0-.6.4-1 1-1h9zM4 4v3h6v2H4v3L0 8l4-4z" id="log-out-16px_svg__a"/></defs><use fill="#737373" xlink:href="#log-out-16px_svg__a" fill-rule="evenodd"/></svg>

<?xml version="1.0" encoding="UTF-8"?>
<svg width="16px" height="16px" viewBox="0 0 16 16" version="1.1" xmlns="http://www.w3.org/2000/svg" xmlns:xlink="http://www.w3.org/1999/xlink">
    <!-- Generator: Sketch 59.1 (86144) - https://sketch.com -->
    <title>log-out-16px</title>
    <desc>Created with Sketch.</desc>
    <defs>
        <path d="M15,0 C15.6,0 16,0.4 16,1 L16,15 C16,15.6 15.6,16 15,16 L6,16 C5.4,16 5,15.6 5,15 L5,12 L7,12 L7,14 L14,14 L14,2 L7,2 L7,4 L5,4 L5,1 C5,0.4 5.4,0 6,0 L15,0 Z M4,4 L4,7 L10,7 L10,9 L4,9 L4,12 L0,8 L4,4 Z" id="path-1"></path>
    </defs>
    <g id="Final" stroke="none" stroke-width="1" fill="none" fill-rule="evenodd">
        <g id="All-Nucleo-Icons" transform="translate(-319.000000, -4764.000000)">
            <g id="Solo/Nucleo/16px/log-out" transform="translate(315.000000, 4760.000000)">
                <g id="log-out" transform="translate(4.000000, 4.000000)">
                    <mask id="mask-2" fill="white">
                        <use xlink:href="#path-1"></use>
                    </mask>
                    <g id="Path-3" fill-rule="nonzero"></g>
                    <g id="colour/neutral/chia" mask="url(#mask-2)" fill="#737373">
                        <g transform="translate(-24.000000, -24.000000)" id="Colour">
                            <rect x="0" y="0" width="64" height="64"></rect>
                        </g>
                    </g>
                </g>
            </g>
        </g>
    </g>
</svg>
